icon-themes/breeze_svg/cmd/sc_graphicfiltersolarize.svg

<svg viewBox="0 0 16 16" xmlns="http://www.w3.org/2000/svg"><path d="m7.5 2v1h1v-1zm-3.375 1.4375c-.2479.21075-.47675.4396-.6875.6875l.71875.71875c.20379-.24694.44056-.48371.6875-.6875zm7.75 0-.71875.71875c.24694.20379.48371.44056.6875.6875l.71875-.71875c-.21074-.2479-.4396-.47675-.6875-.6875zm-3.875.5625c-2.20914 0-4 1.79086-4 4s1.79086 4 4 4 4-1.79086 4-4-1.79086-4-4-4zm-6 3.5v1h1v-1zm2.15625 3.65625-.71875.71875c.21075.2479.4396.47676.6875.6875l.71875-.71875c-.24694-.20379-.48371-.44056-.6875-.6875zm7.6875 0c-.20379.24694-.44056.48371-.6875.6875l.71875.71875c.2479-.21074.47676-.4396.6875-.6875zm-4.34375 1.84375v1h1v-1z" fill="#4d4d4d"/><path d="m14 2c-.55228 0-1 .44772-1 1s.44772 1 1 1 1-.44772 1-1-.44772-1-1-1zm0 3c-.55229 0-1 .44772-1 1s.44771 1 1 1 1-.44772 1-1-.44771-1-1-1zm0 3c-.55229 0-1 .44772-1 1s.44771 1 1 1 1-.44772 1-1-.44771-1-1-1z" fill="#f47750"/></svg>

<svg xmlns="http://www.w3.org/2000/svg" viewBox="0 0 16 16">
 <path 
     style="fill:#4d4d4d" 
     d="M 7.5 2 L 7.5 3 L 8.5 3 L 8.5 2 L 7.5 2 z M 4.125 3.4375 C 3.8771 3.64825 3.64825 3.8771 3.4375 4.125 L 4.15625 4.84375 C 4.36004 4.59681 4.59681 4.36004 4.84375 4.15625 L 4.125 3.4375 z M 11.875 3.4375 L 11.15625 4.15625 C 11.40319 4.36004 11.63996 4.59681 11.84375 4.84375 L 12.5625 4.125 C 12.35176 3.8771 12.1229 3.64825 11.875 3.4375 z M 8 4 C 5.79086 4 4 5.79086 4 8 C 4 10.20914 5.79086 12 8 12 C 10.20914 12 12 10.20914 12 8 C 12 5.79086 10.20914 4 8 4 z M 2 7.5 L 2 8.5 L 3 8.5 L 3 7.5 L 2 7.5 z M 4.15625 11.15625 L 3.4375 11.875 C 3.64825 12.1229 3.8771 12.35176 4.125 12.5625 L 4.84375 11.84375 C 4.59681 11.63996 4.36004 11.40319 4.15625 11.15625 z M 11.84375 11.15625 C 11.63996 11.40319 11.40319 11.63996 11.15625 11.84375 L 11.875 12.5625 C 12.1229 12.35176 12.35176 12.1229 12.5625 11.875 L 11.84375 11.15625 z M 7.5 13 L 7.5 14 L 8.5 14 L 8.5 13 L 7.5 13 z "
     />
 <path 
     style="fill:#f47750" 
     d="M 14 2 C 13.44772 2 13 2.44772 13 3 C 13 3.55228 13.44772 4 14 4 C 14.55228 4 15 3.55228 15 3 C 15 2.44772 14.55228 2 14 2 z M 14 5 C 13.44771 5 13 5.44772 13 6 C 13 6.55228 13.44771 7 14 7 C 14.55229 7 15 6.55228 15 6 C 15 5.44772 14.55229 5 14 5 z M 14 8 C 13.44771 8 13 8.44772 13 9 C 13 9.55228 13.44771 10 14 10 C 14.55229 10 15 9.55228 15 9 C 15 8.44772 14.55229 8 14 8 z "
     />
 </svg>
